public/avatar/body/165.svg

<svg xmlns:xlink="http://www.w3.org/1999/xlink" height="82" width="84.85" xmlns="http://www.w3.org/2000/svg"><g transform="translate(37.4 42.25)"><use height="38" transform="translate(-11.95 -17.45)" width="32.05" xlink:href="#a"/><use height="38.95" transform="translate(-12.45 -17.95)" width="33.05" xlink:href="#b"/><use height="19.35" transform="translate(-12.35 4.55)" width="33" xlink:href="#c"/><use height="11" transform="translate(13.45 -1.7)" width="12.05" xlink:href="#d"/><use height="11" transform="matrix(-1 0 0 1 -5.1 -1.7)" width="12.05" xlink:href="#d"/><use height="14.25" transform="translate(-11.4 7.55)" width="31.15" xlink:href="#e"/></g><defs><use height="38" width="32.05" xlink:href="#f" id="a"/><use height="38.95" width="33.05" xlink:href="#g" id="b"/><use height="11" width="12.05" xlink:href="#h" id="d"/><g id="c" fill-rule="evenodd"><path d="m-10.95 7.5-.35 11.15 1.65 1q8.7 4.15 18.3 3.25 6.25-.75 10.8-5.2l-.7-9.95h1.15l.75 10.1Q18.9 20.9 15.8 22q-9.5 3.15-19.45 1.05-4.85-1-8.7-3.75l.25-11.8h1.15M15.5 6.05Q13.35 7.7 10.55 8.4.95 10.6-7.3 5.55v-1l3.55 1.7q10.05 4.2 19.25-1.5v1.3" fill="#03102d" transform="translate(12.35 -4.55)"/><path d="m18.75 7.75.7 9.95q-4.55 4.45-10.8 5.2-9.6.9-18.3-3.25l-1.65-1 .35-11.15 3.65-1.95Q.95 10.6 10.55 8.4q2.8-.7 4.95-2.35l3.25 1.7" fill="#fff" transform="translate(12.35 -4.55)"/></g><g id="h" fill-rule="evenodd"><path d="M6.95 1.85 6.3 1.5 2.25 5.95q2.55-1.1 5.4-1.8L6.35 7.5l4.2-.9-.35-.95Q9 3.15 7.1 1.9l-.15-.1v.05m-4.4 7.6-.65-.5-1.1-1.2-.75-1.3 1-1.65q1.9-3 4.9-4.8Q7 0 7.7.7q2.8 2.75 4.4 6.25l-.45.4Q8.55 9.6 5 11l-.75-.45L10.45 7l-1.05.3-3.9.75L7.3 4.5 1.7 6.55l.2-.45q1.4-2.3 3.25-4.15l-1.3 1.1Q1.95 4.7 1.1 6.95l1.45 2.5" fill="#03102d" transform="translate(-.05)"/><path d="M2.55 9.45 1.1 6.95q.85-2.25 2.75-3.9l1.3-1.1Q3.3 3.8 1.9 6.1l-.2.45L7.3 4.5 5.5 8.05l3.9-.75 1.05-.3-6.2 3.55-.85.4-.85-1.5" fill="#fff" transform="translate(-.05)"/><path d="M7.1 1.9Q9 3.15 10.2 5.65l.35.95-4.2.9 1.3-3.35q-2.85.7-5.4 1.8L6.3 1.5l.65.35q-1.75 1.1-3 2.8 1.35-.7 2.75-1.1l1.65-.4L7.1 1.9m1.9 2L7.35 6.5l2.75-.85L9 3.9" fill="#d31fff" transform="translate(-.05)"/><path d="M6.95 1.85V1.8l.15.1 1.25 1.25-1.65.4q-1.4.4-2.75 1.1 1.25-1.7 3-2.8M9 3.9l1.1 1.75-2.75.85L9 3.9" fill="#8af1ff" transform="translate(-.05)"/></g><g id="e"><path d="M7.15 16.55q1.95-4.05 5.25-7.3l1.15-1.5q.7 1.45.35 2.9-.45 2.05-1.95 3.55 1.2-.4 2.15-1.3 1.25-1.05 2-2.6l.3-.8q0 2.85-1.75 4.95-1.6 1.95-4.15 2.1l.5.25.5.15h1.1l2.05-.7-.8 1q-1.3 1-3.1.95l-1.95-.05-.35.3.15.5.2.4.2.25.7.3.9.35.7-.4q-.5.85-1.7 1.05-1.2.35-2.2-.5-1-.85-.9-2 .35 1.3 1.55 1.9l.65.2-1.6-2 .95-.95 3.55-.1-2.95-.85q3.25.25 5.4-2.05-2.2 1.3-4.8.9 2.5-.95 3.45-3.45l-5.55 4.55m3-6.95h.25l-1.2 1.2q-1.1.95-2.6 1.25-.6-.35-1.25-.55-2.1-.75-4 .45l-.95-.5q-1.65-.65-2.85-1.65l4.9 1-.2-1.05 1.85.75 1.55-.7-.2 1 1.2-.1q1.75-.25 3.5-1.1M1.3 11.8l.9-.5-3.5-.85 2.6 1.35m5.4-.2 2.6-1.4-3.15 1 .55.4m-1.1 2.9-.8-.3-.5.55q1.5 3.4.4 6.7l-1 .15-1.5-1.55 1.35.9.7-.15.3-.4q-1.2-3.55-.35-7.2l-1.6-.55.9.2 1.75.55.35 1.1m-2.85 2-.15.75q-1 5.3-5.85 2.45l.6.2q2.15.55 2.4-1.4l-.4-.35q-3.7 1.45-5.85-1.9 2.05 1.75 4.15.3-5.8-1.05-5.9-7.05 1.45 3.2 4.45 4.7-2.55-2.8-1.6-6.45 3.6 5 8.15 8.75M.1 17.55l1.05.95-.8 1.15-.4.5-.5.35q1.15-.05 1.65-1.05l.45-1.3.15-1.05q-2.85-3.05-6.25-5.1l.75 1 1.75 1.75.95.7-1.2.2-2.35-.65-1.25-.45 2.5 1.3 2.55.8-1.3.45-.7.25-.75.1 3.7.1m17.2.75-1-1.3 2.6.5-.75-1.4-1.55-2.2 2.85.75.1 3.55-1.45.95-.55-.6 1.15.1.4-.35-2.15-.75.35.75m1.9-1.25-.3-.8-.45-.8-.8-.6 1.55 2.2m-30 1.95-.45-.25.1-3.55 2.8-.7-2.25 3.6 2.55-.5-1.7 2 .95-1.45-2 .85m-.2-1.25-.1.55.9-1.15q.55-.75.6-1.7l-.6.65-.8 1.65" fill="#d31fff" fill-rule="evenodd" transform="translate(11.4 -7.55)"/><path d="m6.5 18.4.65-1.85L12.7 12q-.95 2.5-3.45 3.45 2.6.4 4.8-.9-2.15 2.3-5.4 2.05l2.95.85-3.55.1-.95.95 1.6 2-.65-.2q-1.2-.6-1.55-1.9m-5.2-6.6-2.6-1.35 3.5.85-.9.5m5.4-.2-.55-.4 3.15-1-2.6 1.4M.1 17.55l-3.7-.1.75-.1.7-.25 1.3-.45-2.55-.8-2.5-1.3 1.25.45 2.35.65 1.2-.2-.95-.7L-3.8 13l-.75-1q3.4 2.05 6.25 5.1l-.15 1.05-.45 1.3q-.5 1-1.65 1.05l.5-.35.4-.5.8-1.15-1.05-.95m17.2.75-.35-.75 2.15.75-.4.35-1.15-.1-.25-.25m1.9-1.25-1.55-2.2.8.6.45.8.3.8M-9.75 19.6l-1.05-.6 2-.85-.95 1.45M-11 17.75l.8-1.65.6-.65q-.05.95-.6 1.7l-.9 1.15.1-.55" fill="#8af1ff" fill-rule="evenodd" transform="translate(11.4 -7.55)"/><path d="M10.4 9.6h.55q-1.35 1.35-3.1 2.15l-1.3.65q-1.8-1.45-3.75-.8l-1.35.65Q0 12.1-1.2 11.1l-1.95-1.95 4.95 1.3.15-.95 1.1.15.5.15.45.25 1.5-.75.45.85 4.2-.55q-1.75.85-3.5 1.1l-1.2.1.2-1-1.55.7-1.85-.75.2 1.05-4.9-1q1.2 1 2.85 1.65l.95.5q1.9-1.2 4-.45.65.2 1.25.55 1.5-.3 2.6-1.25l1.2-1.2m7.15 8.95.55.6 1.45-.95-.1-3.55-2.85-.75 1.55 2.2.75 1.4-2.6-.5 1 1.3.25.25m-28.95.35.05-4 1.95-.65 2-.2-2.55 3.6.8-.25.75-.15.75-.25.75-.35L-9.55 20l-1.85-1.1m27.05-5.4 3.9.75.2 4.05-1.85 1.25-2.75-3.45 3.1.95-2.6-3.55m-25.4 6.1 1.7-2-2.55.5 2.25-3.6-2.8.7-.1 3.55.45.25 1.05.6" fill="#03102d" fill-rule="evenodd" transform="translate(11.4 -7.55)"/><path d="M18.55 9q1.95-4.05 5.25-7.3L24.95.2q.7 1.45.35 2.9-.45 2.05-1.95 3.55 1.2-.4 2.15-1.3 1.25-1.05 2-2.6l.3-.8q0 2.85-1.75 4.95-1.6 1.95-4.15 2.1l.5.25.5.15H24l2.05-.7-.8 1q-1.3 1-3.1.95l-1.95-.05-.35.3.15.5.2.4.2.25.7.3.9.35.7-.4q-.5.85-1.7 1.05-1.2.35-2.2-.5-1-.85-.9-2L18.55 9M17 6.95l-.8-.3-.5.55q1.5 3.4.4 6.7l-1 .15-1.5-1.55 1.35.9.7-.15.3-.4q-1.2-3.55-.35-7.2L14 5.1l.9.2 1.75.55.35 1.1m-2.85 2Q9.6 5.2 6 .2q-.95 3.65 1.6 6.45-3-1.5-4.45-4.7.1 6 5.9 7.05-2.1 1.45-4.15-.3 2.15 3.35 5.85 1.9l.4.35q-.25 1.95-2.4 1.4l-.6-.2Q13 15 14 9.7l.15-.75" fill="none" stroke="#03102d" stroke-linecap="round" stroke-linejoin="round" stroke-width=".4"/></g><path d="M27.35 7.4q2.15 4.15 3.55 8.75 1.45 4.7 1.15 9.5-.35 4.95-4.2 8.1-3.8 3.2-8.75 4.05l-2.6.2q-3.6 0-7.05-1.15-4.65-1.6-7.1-5.5Q-.2 27.4.05 23q.2-4.4 2-9.3Q3.85 8.75 7 5.05 10.1 1.3 14.7.1l1.8-.1q1.9.05 3.7.8 4.75 2.05 7.15 6.6" fill="#ffc192" fill-rule="evenodd" transform="translate(-.05)" id="f"/><path d="M27.35 7.4Q24.95 2.85 20.2.8 17.55-.3 14.7.1 10.1 1.3 7 5.05q-3.15 3.7-4.95 8.65-1.8 4.9-2 9.3-.25 4.4 2.3 8.35 2.45 3.9 7.1 5.5 4.65 1.55 9.65.95 4.95-.85 8.75-4.05 3.85-3.15 4.2-8.1.3-4.8-1.15-9.5-1.4-4.6-3.55-8.75Z" fill="none" stroke="#333" stroke-linecap="round" stroke-linejoin="round" transform="translate(.45 .5)" id="g"/></defs></svg>

<?xml version="1.0" encoding="UTF-8" standalone="no"?>
<svg xmlns:xlink="http://www.w3.org/1999/xlink" height="82.0px" width="84.85px" xmlns="http://www.w3.org/2000/svg">
  <g transform="matrix(1.0, 0.0, 0.0, 1.0, 37.4, 42.25)">
    <use height="38.0" transform="matrix(1.0, 0.0, 0.0, 1.0, -11.95, -17.45)" width="32.05" xlink:href="#sprite0"/>
    <use height="38.95" transform="matrix(1.0, 0.0, 0.0, 1.0, -12.45, -17.95)" width="33.05" xlink:href="#sprite1"/>
    <use height="19.35" transform="matrix(1.0, 0.0, 0.0, 1.0, -12.35, 4.55)" width="33.0" xlink:href="#shape2"/>
    <use height="11.0" transform="matrix(1.0, 0.0, 0.0, 1.0, 13.45, -1.7)" width="12.05" xlink:href="#sprite2"/>
    <use height="11.0" transform="matrix(-1.0, 0.0, 0.0, 1.0, -5.1, -1.7)" width="12.05" xlink:href="#sprite2"/>
    <use height="14.25" transform="matrix(1.0, 0.0, 0.0, 1.0, -11.4, 7.55)" width="31.15" xlink:href="#shape4"/>
  </g>
  <defs>
    <g id="sprite0" transform="matrix(1.0, 0.0, 0.0, 1.0, -0.05, 0.0)">
      <use height="38.0" transform="matrix(1.0, 0.0, 0.0, 1.0, 0.05, 0.0)" width="32.05" xlink:href="#shape0"/>
    </g>
    <g id="shape0" transform="matrix(1.0, 0.0, 0.0, 1.0, -0.05, 0.0)">
      <path d="M27.35 7.4 Q29.5 11.55 30.9 16.15 32.35 20.85 32.05 25.65 31.7 30.6 27.85 33.75 24.05 36.95 19.1 37.8 L16.5 38.0 Q12.9 38.0 9.45 36.85 4.8 35.25 2.35 31.35 -0.2 27.4 0.05 23.0 0.25 18.6 2.05 13.7 3.85 8.75 7.0 5.05 10.1 1.3 14.7 0.1 L16.5 0.0 Q18.4 0.05 20.2 0.8 24.95 2.85 27.35 7.4" fill="#ffc192" fill-rule="evenodd" stroke="none"/>
    </g>
    <g id="sprite1" transform="matrix(1.0, 0.0, 0.0, 1.0, 0.45, 0.5)">
      <use height="38.95" transform="matrix(1.0, 0.0, 0.0, 1.0, -0.45, -0.5)" width="33.05" xlink:href="#shape1"/>
    </g>
    <g id="shape1" transform="matrix(1.0, 0.0, 0.0, 1.0, 0.45, 0.5)">
      <path d="M27.35 7.4 Q24.95 2.85 20.2 0.8 17.55 -0.3 14.7 0.1 10.1 1.3 7.0 5.05 3.85 8.75 2.05 13.7 0.25 18.6 0.05 23.0 -0.2 27.4 2.35 31.35 4.8 35.25 9.45 36.85 14.1 38.4 19.1 37.8 24.05 36.95 27.85 33.75 31.7 30.6 32.05 25.65 32.35 20.85 30.9 16.15 29.5 11.55 27.35 7.4 Z" fill="none" stroke="#333333" stroke-linecap="round" stroke-linejoin="round" stroke-width="1.0"/>
    </g>
    <g id="shape2" transform="matrix(1.0, 0.0, 0.0, 1.0, 12.35, -4.55)">
      <path d="M-10.95 7.5 L-11.3 18.65 -9.65 19.65 Q-0.95 23.8 8.65 22.9 14.9 22.15 19.45 17.7 L18.75 7.75 19.9 7.75 20.65 17.85 Q18.9 20.9 15.8 22.0 6.3 25.15 -3.65 23.05 -8.5 22.05 -12.35 19.3 L-12.1 7.5 -10.95 7.5 M15.5 6.05 Q13.35 7.7 10.55 8.4 0.95 10.6 -7.3 5.55 L-7.3 4.55 -3.75 6.25 Q6.3 10.45 15.5 4.75 L15.5 6.05" fill="#03102d" fill-rule="evenodd" stroke="none"/>
      <path d="M18.75 7.75 L19.45 17.7 Q14.9 22.15 8.65 22.9 -0.95 23.8 -9.65 19.65 L-11.3 18.65 -10.95 7.5 -7.3 5.55 Q0.95 10.6 10.55 8.4 13.35 7.7 15.5 6.05 L18.75 7.75" fill="#ffffff" fill-rule="evenodd" stroke="none"/>
    </g>
    <g id="sprite2" transform="matrix(1.0, 0.0, 0.0, 1.0, -0.05, 0.0)">
      <use height="11.0" transform="matrix(1.0, 0.0, 0.0, 1.0, 0.05, 0.0)" width="12.05" xlink:href="#shape3"/>
    </g>
    <g id="shape3" transform="matrix(1.0, 0.0, 0.0, 1.0, -0.05, 0.0)">
      <path d="M6.95 1.85 L6.3 1.5 2.25 5.95 Q4.8 4.85 7.65 4.15 L6.35 7.5 10.55 6.6 10.2 5.65 Q9.0 3.15 7.1 1.9 L6.95 1.8 6.95 1.85 M2.55 9.45 L1.9 8.95 0.8 7.75 0.05 6.45 1.05 4.8 Q2.95 1.8 5.95 0.0 7.0 0.0 7.7 0.7 10.5 3.45 12.1 6.95 L11.65 7.35 Q8.55 9.6 5.0 11.0 L4.25 10.55 10.45 7.0 9.4 7.3 5.5 8.05 7.3 4.5 1.7 6.55 1.9 6.1 Q3.3 3.8 5.15 1.95 L3.85 3.05 Q1.95 4.7 1.1 6.95 L2.55 9.45" fill="#03102d" fill-rule="evenodd" stroke="none"/>
      <path d="M2.55 9.45 L1.1 6.95 Q1.95 4.7 3.85 3.05 L5.15 1.95 Q3.3 3.8 1.9 6.1 L1.7 6.55 7.3 4.5 5.5 8.05 9.4 7.3 10.45 7.0 4.25 10.55 3.4 10.95 2.55 9.45" fill="#ffffff" fill-rule="evenodd" stroke="none"/>
      <path d="M7.1 1.9 Q9.0 3.15 10.2 5.65 L10.55 6.6 6.35 7.5 7.65 4.15 Q4.8 4.85 2.25 5.95 L6.3 1.5 6.95 1.85 Q5.2 2.95 3.95 4.65 5.3 3.95 6.7 3.55 L8.35 3.15 7.1 1.9 M9.0 3.9 L7.35 6.5 10.1 5.65 9.0 3.9" fill="#d31fff" fill-rule="evenodd" stroke="none"/>
      <path d="M6.95 1.85 L6.95 1.8 7.1 1.9 8.35 3.15 6.7 3.55 Q5.3 3.95 3.95 4.65 5.2 2.95 6.95 1.85 M9.0 3.9 L10.1 5.65 7.35 6.5 9.0 3.9" fill="#8af1ff" fill-rule="evenodd" stroke="none"/>
    </g>
    <g id="shape4" transform="matrix(1.0, 0.0, 0.0, 1.0, 11.4, -7.55)">
      <path d="M7.15 16.55 Q9.1 12.5 12.4 9.25 L13.55 7.75 Q14.25 9.2 13.9 10.65 13.45 12.7 11.95 14.2 13.15 13.8 14.1 12.9 15.35 11.85 16.1 10.3 L16.4 9.5 Q16.4 12.35 14.65 14.45 13.05 16.4 10.5 16.55 L11.0 16.8 11.5 16.95 12.05 16.95 12.6 16.95 14.65 16.25 13.85 17.25 Q12.55 18.25 10.75 18.2 L8.8 18.15 8.45 18.45 8.6 18.95 8.8 19.35 9.0 19.6 9.7 19.9 10.6 20.25 11.3 19.85 Q10.8 20.7 9.6 20.9 8.4 21.25 7.4 20.4 6.4 19.55 6.5 18.4 6.85 19.7 8.05 20.3 L8.7 20.5 7.1 18.5 8.05 17.55 11.6 17.45 8.65 16.6 Q11.9 16.85 14.05 14.55 11.85 15.85 9.25 15.45 11.75 14.5 12.7 12.0 L7.15 16.55 M10.15 9.6 L10.4 9.6 9.2 10.8 Q8.1 11.75 6.6 12.05 6.0 11.7 5.35 11.5 3.25 10.75 1.35 11.95 L0.4 11.45 Q-1.25 10.8 -2.45 9.8 L2.45 10.8 2.25 9.75 4.1 10.5 5.65 9.8 5.45 10.8 6.65 10.7 Q8.4 10.45 10.15 9.6 M1.3 11.8 L2.2 11.3 -1.3 10.45 1.3 11.8 M6.7 11.6 L9.3 10.2 6.15 11.2 6.7 11.6 M5.6 14.5 L4.8 14.2 4.3 14.75 Q5.8 18.15 4.7 21.45 L3.7 21.6 2.2 20.05 3.55 20.95 4.25 20.8 4.55 20.4 Q3.35 16.85 4.2 13.2 L2.6 12.65 3.5 12.85 5.25 13.4 5.6 14.5 M2.75 16.5 L2.6 17.25 Q1.6 22.55 -3.25 19.7 L-2.65 19.9 Q-0.5 20.45 -0.25 18.5 L-0.65 18.15 Q-4.35 19.6 -6.5 16.25 -4.45 18.0 -2.35 16.55 -8.15 15.5 -8.25 9.5 -6.8 12.7 -3.8 14.2 -6.35 11.4 -5.4 7.75 -1.8 12.75 2.75 16.5 M0.1 17.55 L1.15 18.5 0.35 19.65 -0.05 20.15 -0.55 20.5 Q0.6 20.45 1.1 19.45 L1.55 18.15 1.7 17.1 Q-1.15 14.05 -4.55 12.0 L-3.8 13.0 -2.05 14.75 -1.1 15.45 -2.3 15.65 -4.65 15.0 -5.9 14.55 -3.4 15.85 -0.85 16.65 -2.15 17.1 -2.85 17.35 -3.6 17.45 0.1 17.55 M17.3 18.3 L16.3 17.0 18.9 17.5 18.15 16.1 16.6 13.9 19.45 14.65 19.55 18.2 18.1 19.15 17.55 18.55 18.7 18.65 19.1 18.3 16.95 17.55 17.3 18.3 M19.2 17.05 L18.9 16.25 18.45 15.45 17.65 14.85 19.2 17.05 M-10.8 19.0 L-11.25 18.75 -11.15 15.2 -8.35 14.5 -10.6 18.1 -8.05 17.6 -9.75 19.6 -8.8 18.15 -10.8 19.0 M-11.0 17.75 L-11.1 18.3 -10.2 17.15 Q-9.65 16.4 -9.6 15.45 L-10.2 16.1 -11.0 17.75" fill="#d31fff" fill-rule="evenodd" stroke="none"/>
      <path d="M6.5 18.4 L7.15 16.55 12.7 12.0 Q11.75 14.5 9.25 15.45 11.85 15.85 14.05 14.55 11.9 16.85 8.65 16.6 L11.6 17.45 8.05 17.55 7.1 18.5 8.7 20.5 8.05 20.3 Q6.85 19.7 6.5 18.4 M1.3 11.8 L-1.3 10.45 2.2 11.3 1.3 11.8 M6.7 11.6 L6.15 11.2 9.3 10.2 6.7 11.6 M0.1 17.55 L-3.6 17.45 -2.85 17.35 -2.15 17.1 -0.85 16.65 -3.4 15.85 -5.9 14.55 -4.65 15.0 -2.3 15.65 -1.1 15.45 -2.05 14.75 -3.8 13.0 -4.55 12.0 Q-1.15 14.05 1.7 17.1 L1.55 18.15 1.1 19.45 Q0.6 20.45 -0.55 20.5 L-0.05 20.15 0.35 19.65 1.15 18.5 0.1 17.55 M17.3 18.3 L16.95 17.55 19.1 18.3 18.7 18.65 17.55 18.55 17.3 18.3 M19.2 17.05 L17.65 14.85 18.45 15.45 18.9 16.25 19.2 17.05 M-9.75 19.6 L-10.8 19.0 -8.8 18.15 -9.75 19.6 M-11.0 17.75 L-10.2 16.1 -9.6 15.45 Q-9.65 16.4 -10.2 17.15 L-11.1 18.3 -11.0 17.75" fill="#8af1ff" fill-rule="evenodd" stroke="none"/>
      <path d="M10.4 9.6 L10.95 9.6 Q9.6 10.95 7.85 11.75 L6.55 12.4 Q4.75 10.95 2.8 11.6 L1.45 12.25 Q0.0 12.1 -1.2 11.1 L-3.15 9.15 1.8 10.45 1.95 9.5 3.05 9.65 3.55 9.8 4.0 10.05 5.5 9.3 5.95 10.15 10.15 9.6 Q8.4 10.45 6.65 10.7 L5.45 10.8 5.65 9.8 4.1 10.5 2.25 9.75 2.45 10.8 -2.45 9.8 Q-1.25 10.8 0.4 11.45 L1.35 11.95 Q3.25 10.75 5.35 11.5 6.0 11.7 6.6 12.05 8.1 11.75 9.2 10.8 L10.4 9.6 M17.55 18.55 L18.1 19.15 19.55 18.2 19.45 14.65 16.6 13.9 18.15 16.1 18.9 17.5 16.3 17.0 17.3 18.3 17.55 18.55 M-11.4 18.9 L-11.35 14.9 -9.4 14.25 -7.4 14.05 -9.95 17.65 -9.15 17.4 -8.4 17.25 -7.65 17.0 -6.9 16.65 -9.55 20.0 -11.4 18.9 M15.65 13.5 L19.55 14.25 19.75 18.3 17.9 19.55 15.15 16.1 18.25 17.05 15.65 13.5 M-9.75 19.6 L-8.05 17.6 -10.6 18.1 -8.35 14.5 -11.15 15.2 -11.25 18.75 -10.8 19.0 -9.75 19.6" fill="#03102d" fill-rule="evenodd" stroke="none"/>
      <path d="M7.15 16.55 Q9.1 12.5 12.4 9.25 L13.55 7.75 Q14.25 9.2 13.9 10.65 13.45 12.7 11.95 14.2 13.15 13.8 14.1 12.9 15.35 11.85 16.1 10.3 L16.4 9.5 Q16.4 12.35 14.65 14.45 13.05 16.4 10.5 16.55 L11.0 16.8 11.5 16.95 12.05 16.95 12.6 16.95 14.65 16.25 13.85 17.25 Q12.55 18.25 10.75 18.2 L8.8 18.15 8.45 18.45 8.6 18.95 8.8 19.35 9.0 19.6 9.7 19.9 10.6 20.25 11.3 19.85 Q10.8 20.7 9.6 20.9 8.4 21.25 7.4 20.4 6.4 19.55 6.5 18.4 L7.15 16.55 M5.6 14.5 L4.8 14.2 4.3 14.75 Q5.8 18.15 4.7 21.45 L3.7 21.6 2.2 20.05 3.55 20.95 4.25 20.8 4.55 20.4 Q3.35 16.85 4.2 13.2 L2.6 12.65 3.5 12.85 5.25 13.4 5.6 14.5 M2.75 16.5 Q-1.8 12.75 -5.4 7.75 -6.35 11.4 -3.8 14.2 -6.8 12.7 -8.25 9.5 -8.15 15.5 -2.35 16.55 -4.45 18.0 -6.5 16.25 -4.35 19.6 -0.65 18.15 L-0.25 18.5 Q-0.5 20.45 -2.65 19.9 L-3.25 19.7 Q1.6 22.55 2.6 17.25 L2.75 16.5" fill="none" stroke="#03102d" stroke-linecap="round" stroke-linejoin="round" stroke-width="0.4"/>
    </g>
  </defs>
</svg>
